build/img/logotype-tablet.svg

<svg width="102" height="84" viewBox="0 0 102 84" fill="none" xmlns="http://www.w3.org/2000/svg">
<path d="M1 0.700195L50.6 59.1002L99.9 1.1002L1 0.700195Z" fill="#23A9E1"/>
<path d="M79.8001 17.3002C74.7001 17.3002 69.7001 17.4002 64.6001 17.4002C70.6001 10.5002 73.3001 11.2002 79.8001 17.3002Z" fill="white"/>
<path d="M38.5999 22.6997C47.4999 22.6997 56.3999 22.6997 65.2999 22.6997C63.2999 21.4997 58.5999 15.5997 55.9999 17.7997C55.7999 17.9997 48.4999 8.89973 43.6999 13.2997C39.4999 17.0997 37.5999 12.7997 32.7999 15.7997C27.4999 19.3997 35.9999 21.4997 38.5999 22.6997Z" fill="white"/>
<path d="M50.9 0H0V22.5L50.6 84L50.9 83.6L101.6 23.2V0H50.9ZM50.9 57.1L50.6 57.5L3.7 1.8H50.9H98.1L50.9 57.1Z" fill="#491213"/>
<path d="M50.6001 57.4998L50.9 57.0998L78.5 24.7998C71.6 25.6998 66.6 30.8998 59.9 29.7998C56.5 29.1998 56.4 27.2998 55.4 25.2998C54.7 23.7998 53.5 23.9998 51.9 23.3998C50.5 22.7998 49.6 21.6998 46.7001 22.2998C44.2001 22.8998 43.9001 26.7998 40.7001 26.5998C39 26.4998 38.9 24.0998 36.5 21.0998C30.2 13.4998 24.3 14.5998 20.3 21.5998L50.6001 57.4998Z" fill="#491213"/>
<path d="M46.5 70.9004L50.6 64.4004L54.6 70.9004L50.6 77.4004L46.5 70.9004Z" fill="#23A9E1"/>
<path d="M23.3 32.3004C23.8 32.9004 24.2001 33.6004 24.1001 34.4004C24.0001 35.0004 23.2 36.0004 23.8 36.2004C24.5 35.3004 25.3 34.3004 26 33.4004C25.4 33.2004 20.6 27.6004 20.6 26.9004C19.5 27.5004 18.5 28.1004 17.4 28.6004C17.6 29.3004 18.7 28.6004 19.3 28.6004C20.1 28.7004 20.7 29.2004 21.3 29.8004C19.6 31.2004 15.4 34.8004 14.9 34.9004C14.7 34.9004 13.8 34.3004 13.8 34.8004C13.8 35.1004 14.7 35.8004 14.8 36.0004C15.5 36.9004 16.3 37.8004 17 38.7004C17.6 38.4004 16.9001 38.0004 17.2001 37.5004C17.5001 37.1004 22.1 33.2004 23.3 32.3004Z" fill="white"/>
<path d="M18 25.3003C18.4 25.2003 18.6 25.7003 19 25.2003C18.2 24.2003 17.4 23.3003 16.6 22.3003C16.2 21.9003 15.8 21.4003 15.9 22.3003C16 22.9003 9.80005 28.0003 9.40005 28.1003C8.90005 28.3003 8.60005 27.7003 8.30005 28.2003C9.00005 29.1003 9.80005 29.9003 10.5 30.8003C10.7 31.1003 11.0001 31.4003 11.2001 31.7003C11.5001 32.0003 11.4 31.0003 11.4 31.1003C11.3 30.6003 11.9 30.2003 12.3 29.9003C13.8 28.6003 17.6 25.3003 18 25.3003Z" fill="white"/>
<path d="M9.19998 24.4C7.39998 24.9 5.49998 24.2 4.99998 22.4C4.49998 20.6 5.59998 18.6 7.09998 17.6C8.49998 16.6 10.7 16.6 11.5 18.4C11.8 19.2 11.7 20.1 11.4 20.9C11.2 21.4 10.8 21.9 11.5 22.2C12.4 21.1 13.2 20 14.1 18.9C13 18.3 12.6 17.2 11.8 16.3C10.9 15.2 9.69998 14.2 8.29998 14C5.39998 13.6 2.69998 16.6 2.49998 19.2C2.39998 20.7 2.89998 22 3.69998 23.2C4.49998 24.2 5.59998 24.8 6.09998 26C6.39998 26.1 8.79998 25 9.39998 24.7C9.29998 24.6 9.29998 24.5 9.19998 24.4C8.49998 24.6 9.19998 24.4 9.19998 24.4Z" fill="white"/>
<path d="M48.5 60.7996C47.3 59.9996 44.5 56.0996 43.9 55.4996C43.8 55.3996 43.7001 55.1996 43.6001 55.0996C43.6001 55.0996 43.3 55.2996 43.4 55.2996C43.2 55.3996 43.5 55.8996 43.3 56.1996C42.5 57.3996 37.5 61.1996 37.3 61.3996C36.7 61.7996 36.1 61.1996 35.8 61.6996C36.5 62.5996 38.6 65.1996 38.8 65.2996C39.3 65.3996 38.9 64.4996 39 64.2996C39.1 63.8996 41.6 61.8996 42.5 61.0996C42.8 60.7996 43.2 61.4996 43.4 61.7996C43.7 62.2996 43.9001 62.7996 43.7001 63.3996C43.6001 63.7996 43 64.2996 43.4 64.5996C44 63.8996 45.8 61.7996 46 61.5996C46.3 61.2996 45.4 61.5996 45.5 61.4996C45.1 61.6996 44.8 61.6996 44.4 61.4996C44.3 61.3996 43.3 60.3996 43.4 60.2996C43.8 59.8996 44.4 59.2996 44.9 59.1996C45.8 58.9996 46.5001 60.6996 46.6001 61.2996C46.7001 61.8996 46.7 62.4996 46.5 63.0996C46.4 63.4996 46 63.7996 46.5 63.9996C47.2 62.9996 47.9001 62.0996 48.6001 61.0996C48.8001 60.8996 48.6 60.7996 48.5 60.7996C48.4 60.6996 48.7 60.7996 48.5 60.7996Z" fill="white"/>
<path d="M38.3 56.6001C40.5 54.7001 40.8 51.5001 39.1 49.3001C37.2 46.8001 33.7 46.2001 31.3 48.2001C29.1 50.1001 28.8 53.2001 30.5 55.5001C32.5 58.2001 35.7 58.5001 38.3 56.6001C39.5 55.7001 38.2 56.7001 38.3 56.6001ZM37.8 51.9001C37.2 53.4001 35.6 55.0001 34.1 55.6001C32.3 56.3001 31 54.8001 31.7 53.0001C32.4 51.5001 33.9 49.9001 35.4 49.3001C37.3 48.6001 38.5 50.2001 37.8 51.9001C37.4 52.8001 37.9 51.7001 37.8 51.9001Z" fill="white"/>
<path d="M31.9 42.0004C32.4 42.1004 32.8 42.5004 33.2 42.0004C32.5 41.1004 31.7 40.2004 31 39.4004C30.4 39.7004 31 39.9004 30.8 40.4004C30.6 40.8004 28.2 41.2004 27.6 41.3004C27.8 40.7004 28.5 38.7004 28.8 38.5004C29.3 38.1004 29.7 38.9004 30.1 38.4004C29.2 37.3004 28.3 36.2004 27.4 35.1004C27.1 34.7004 26.8 34.1004 26.4 34.4004C26.4 34.4004 26.4 35.9004 26.3 36.1004C26.2 36.3004 25.4 39.7004 24.4 40.6004C23.9 41.0004 22.2 42.5004 21.7 42.7004C21.2 42.9004 20.9 42.1004 20.5 42.7004C21.3 43.7004 22.2 44.7004 23 45.7004C23.1 45.8004 23.6 46.6004 23.8 46.6004C24.3 46.7004 23.9 45.7004 23.9 45.5004C24.1 45.1004 26.4 42.8004 27.4 42.6004C28.6 42.4004 30.4 41.9004 31.9 42.0004C32.2 42.1004 31.5 42.0004 31.9 42.0004Z" fill="white"/>
<path d="M25.6 22.9C21.6 22.7 23.2 18.9 26 18.1C28.6 17.3 34.1 19.8 35.8 21.5C33 22.4 29.4 22.2 26.4 22.4C26.2 19.2 25.4 20.3 25.6 22.9Z" fill="#DC6243"/>
<path d="M26.6001 27.6996C24.6001 26.0996 25.2001 22.3996 28.4001 23.5996C32.4001 25.6996 27.5001 26.7996 26.6001 27.6996Z" fill="#DC6243"/>
<path d="M35.1 35.4002C26.5 35.3002 32.3 22.1002 35.2 22.9002C38.6 24.0002 38.2 35.5002 35.1 35.4002Z" fill="#DC6243"/>
<path d="M41.2001 31.1003C40.4001 33.6003 38.8001 34.1003 39.0001 31.0003C39.2001 27.5003 41.5001 28.3003 43.9001 27.0003C45.9001 25.9003 47.0001 21.8003 50.5001 24.2003C52.1001 25.3003 53.9001 24.4003 54.4001 26.0003C54.4001 25.9003 49.9001 36.3003 52.4001 36.3003C47.4001 36.3003 49.6001 30.4003 51.5001 26.4003C49.7001 27.3003 46.7001 33.1003 49.1001 34.0003C47.8001 35.7003 43.9001 37.9003 41.9001 36.3003C40.4001 35.2003 41.2001 33.1003 41.2001 31.1003Z" fill="#DC6243"/>
<path d="M45.3 40.6998C41.8 41.6998 37.2 39.4998 42.8 38.3998C46.3 37.6998 50 39.0998 45.3 40.6998C45.4 40.6998 45.2 40.6998 45.3 40.6998Z" fill="#DC6243"/>
<path d="M49.7 40.6003C49 38.9003 50.3 37.0003 52.4 38.4003C54.2 39.6003 51.5 41.5003 49.7 40.6003Z" fill="#DC6243"/>
<path d="M46.7 45.2C44.3 44.5 36.2 44.6 41.5 42.4C43.2 41.8 51.7 42.6 46.7 45.2Z" fill="#DC6243"/>
<path d="M49.9 44.8997C49.9 43.8997 49.4 42.1997 51.3 42.9997C53.5 43.7997 49.9 45.5997 49.9 44.8997C49.9 44.8997 49.9 44.6997 49.9 44.8997Z" fill="#DC6243"/>
<path d="M57.2001 48.4998C55.8001 47.2998 54.3001 47.1998 53.0001 48.4998C51.2001 45.1998 44.7001 46.2998 41.6001 45.7998C43.2001 49.8998 56.4001 50.6998 57.2001 48.4998Z" fill="#DC6243"/>
<path d="M55.2999 50.9998C52.0999 50.8998 48.6 50.3998 45.7 51.0998C47.6 51.5998 52.0999 52.8998 47.8999 53.9998C49.3999 56.1998 51.8999 55.9998 53.4999 54.0998C52.7999 53.7998 52.4999 53.3998 51.8999 52.9998C53.4999 52.6998 55.0999 51.7998 55.2999 50.9998Z" fill="#DC6243"/>
<path d="M58.9 47.0996C53.6 43.9996 54.9 41.6996 59.3 39.4996C61.6 38.3996 66.6 34.2996 68.7 35.5996C65.4 39.4996 62.1 43.2996 58.9 47.0996Z" fill="#DC6243"/>
<path d="M55.0999 39.8002C50.5999 35.2002 61.7999 35.6002 63.5999 34.0002C64.8999 34.4002 74.3999 25.7002 76.6999 26.3002C74.9999 28.2002 71.4999 34.4002 68.8999 34.4002C66.8999 34.4002 64.8999 34.1002 63.3999 35.5002C61.1999 37.6002 57.4999 38.6002 55.0999 39.8002Z" fill="#F49774"/>
<path d="M56.6 34.1996C54.1 35.4996 51.8 30.2996 56.1 30.7996C58.9 31.0996 61.8 30.5996 64.4 30.9996C62.4 33.2996 59.7 34.5996 56.6 34.1996Z" fill="#F4B1A4"/>
<path d="M69.2001 52.4996C69.4001 53.0996 69.5001 53.7996 69.4001 54.4996C69.3001 55.3996 68.4001 57.3996 67.2001 56.7996C66.0001 56.1996 65.0001 55.0996 64.0001 54.1996C64.8001 53.2996 65.5001 52.4996 66.9001 52.8996C67.3001 52.9996 67.6001 52.8996 67.2001 52.5996C66.8001 52.3996 64.1001 50.5996 63.9001 50.7996C63.6001 51.0996 64.4001 51.6996 64.1001 52.2996C63.9001 52.6996 63.5001 53.0996 63.2001 53.4996C62.5001 52.8996 61.3001 52.1996 62.1001 51.1996C62.6001 50.4996 63.4001 49.9996 64.2001 49.8996C64.8001 49.7996 66.0001 50.2996 66.2001 49.6996C65.1001 49.1996 64.0001 48.6996 62.9001 48.0996C63.1001 48.8996 59.6001 52.5996 58.8001 53.5996C58.7001 53.6996 58.1001 54.1996 58.1001 54.3996C58.1001 54.7996 58.7001 54.4996 58.8001 54.4996C59.3001 54.2996 65.6001 59.5996 65.8001 59.9996C65.9001 60.2996 65.6001 60.5996 65.8001 60.6996C65.8001 60.6996 66.0001 60.8996 66.1001 60.8996C66.5001 60.3996 70.6001 54.8996 71.5001 54.6996C70.7001 53.4996 69.9001 52.2996 69.1001 50.9996C68.5001 51.2996 69.1001 51.9996 69.2001 52.4996Z" fill="white"/>
<path d="M62.9999 59.2004C60.8999 57.9004 57.3999 60.5004 56.8999 60.7004C55.8999 61.2004 55.1 60.2004 55.6 59.2004C56.1 58.4004 56.9999 58.0004 57.8999 57.9004C58.1999 57.9004 59.1999 58.1004 59.3999 57.9004C59.4999 57.7004 59.5999 57.7004 59.3999 57.6004C58.4999 57.0004 57.6999 56.4004 56.7999 55.9004C56.5999 57.0004 55.4 57.6004 54.7 58.3004C53.9 59.2004 53.2 60.2004 53.2 61.5004C53.2 62.6004 53.8999 63.6004 54.8999 64.2004C55.9999 64.8004 57.2 64.3004 58.2 63.7004C58.8 63.3004 59.5 62.8004 60.1 62.5004C61.1 62.0004 62.4 62.4004 62.1 63.8004C61.8 64.9004 60.7 65.9004 59.7 66.1004C59.1 66.3004 58.3999 66.2004 57.7999 66.0004C57.3999 65.9004 56.8 65.3004 56.6 65.9004C57.8 66.7004 58.9 67.6004 60.1 68.4004C60.2 67.6004 60.6 67.3004 61.2 66.8004C61.9 66.2004 62.6 65.5004 63.2 64.7004C64.4 63.0004 64.7999 60.6004 62.9999 59.2004Z" fill="white"/>
<path d="M63 59.1999C64 59.7999 62.4 58.6999 63 59.1999V59.1999Z" fill="white"/>
<path d="M99.7001 19.6003C99.0001 20.3003 91.3001 17.3003 90.7001 16.8003C90.4001 16.7003 90.4001 15.5003 90.0001 16.0003C89.6001 16.5003 89.2001 17.0003 88.8001 17.5003C88.4001 18.0003 88.0001 18.5003 87.5001 19.0003C87.2001 19.3003 87.0001 19.5003 87.5001 19.7003C88.3001 19.3003 92.9001 27.0003 92.5001 28.2003C91.8001 28.6003 85.6001 23.1003 85.4001 22.8003C85.3001 22.7003 85.7001 21.8003 85.2001 21.9003C85.0001 21.9003 84.5001 22.8003 84.3001 23.0003C84.0001 23.4003 83.7001 23.7003 83.4001 24.1003C83.7001 24.6003 83.9001 24.1003 84.4001 24.1003C84.8001 24.2003 86.2001 25.4003 86.6001 25.8003C85.9001 25.8003 83.9001 25.9003 83.7001 25.9003C82.8001 26.0003 83.3001 25.2003 82.7001 25.0003C81.9001 25.9003 81.2001 26.8003 80.4001 27.8003C80.0001 28.3003 79.5001 28.9003 79.1001 29.4003C79.0001 29.5003 79.1001 29.4003 79.1001 29.5003C79.4001 29.8003 79.2001 29.7003 79.7001 29.5003C80.2001 29.3003 86.3001 34.4003 86.5001 34.7003C86.9001 35.1003 86.3001 35.7003 86.9001 35.9003C87.5001 35.2003 88.1001 34.4003 88.7001 33.7003C88.8001 33.6003 88.8001 33.6003 88.7001 33.5003C88.3001 33.1003 88.2001 33.7003 87.7001 33.7003C87.2001 33.6003 83.3001 30.3003 81.8001 29.1003C83.6001 29.0003 89.1001 28.8003 90.0001 28.8003C90.3001 28.8003 91.1001 29.7003 91.1001 30.0003C91.0001 30.4003 90.6001 30.6003 91.2001 30.8003C91.7001 30.2003 92.2001 29.7003 92.7001 29.1003L92.9001 28.8003C93.0001 28.7003 93.0001 28.7003 93.1001 28.5003L93.3001 28.3003C93.7001 27.8003 95.1001 26.3003 94.9001 26.2003C94.4001 25.8003 94.2001 26.7003 93.6001 26.1003C93.3001 25.9003 92.4001 24.3003 92.2001 23.9003C91.9001 23.5003 92.8001 23.0003 93.2001 22.8003C94.0001 22.3003 96.4001 21.6003 96.7001 23.1003C96.7001 23.4003 96.4001 23.6003 96.6001 23.8003C96.6001 23.8003 96.8001 24.0003 96.9001 24.0003C97.1001 23.8003 99.3001 21.2003 100.2 20.0003C99.9001 19.8003 99.8001 19.7003 99.7001 19.6003ZM92.3001 21.8003C92.4001 21.8003 92.5001 21.7003 92.3001 21.8003C92.0001 22.0003 91.6001 22.3003 91.3001 22.6003C90.8001 21.7003 90.3001 20.8003 89.7001 19.9003C90.9001 20.4003 92.1001 20.9003 93.2001 21.4003C93.0001 21.5003 92.7001 21.6003 92.3001 21.8003Z" fill="white"/>
<path d="M82.6 33.0004C80.2 31.0004 77 31.6004 75 33.8004C73.1 36.1004 73.3 39.5004 75.6 41.4004C77.9 43.3004 81.3 42.8004 83.2 40.6004C85.1 38.3004 85 34.9004 82.6 33.0004ZM82.3 39.6004C82.3 39.6004 82.3 39.7004 82.3 39.6004C81 40.9004 78.9 39.7004 77.8 38.9004C76.7 38.1004 74.7 36.3004 75.9 34.8004C77 33.5004 79 34.6004 80.1 35.3004C81.3 36.1004 83.5 37.9004 82.4 39.5004C82.5 39.4004 82.5 39.4004 82.3 39.6004Z" fill="white"/>
<path d="M82.6 32.9995C83.8 33.9995 82.3 32.7995 82.6 32.9995V32.9995Z" fill="white"/>
<path d="M82.3 39.6996C82.3 39.5996 82.3 39.5996 82.3 39.6996C82.4 39.5996 82.4 39.5996 82.4 39.5996C82.3 39.5996 82.3 39.6996 82.3 39.6996Z" fill="white"/>
<path d="M76 42.1002C76.1 42.2002 76.3 42.4002 76 42.1002C73.1 39.9002 69.7 40.5002 67.5 43.2002C66.5 44.4002 65.5 45.6002 64.5 46.8002C64.9 47.3002 65.3 46.7002 65.8 47.0002C66.2 47.3002 72 52.1002 72.1 52.4002C72.3 52.9002 71.8 52.9002 72.2 53.3002C72.4 53.4002 76.7 48.1002 77.1 47.1002C78 45.3002 77.4 43.4002 76 42.1002ZM74.7 48.9002C74.5 49.2002 74.7 49.0002 74 49.6002C73.7 49.9002 67.6 44.9002 67.8 44.7002C68.6 43.8002 70.4 43.1002 71.4 43.4002C73.6 43.9002 76.6 46.6002 74.7 48.9002Z" fill="white"/>
</svg>

<svg width="102" height="84" fill="none" xmlns="http://www.w3.org/2000/svg"><path d="M1 .7l49.6 58.4 49.3-58L1 .7z" fill="#23A9E1"/><path d="M79.8 17.3c-5.1 0-10.1.1-15.2.1 6-6.9 8.7-6.2 15.2-.1zm-41.2 5.4h26.7c-2-1.2-6.7-7.1-9.3-4.9-.2.2-7.5-8.9-12.3-4.5-4.2 3.8-6.1-.5-10.9 2.5-5.3 3.6 3.2 5.7 5.8 6.9z" fill="#fff"/><path d="M50.9 0H0v22.5L50.6 84l.3-.4 50.7-60.4V0H50.9zm0 57.1l-.3.4L3.7 1.8h94.4L50.9 57.1z" fill="#491213"/><path d="M50.6 57.5l.3-.4 27.6-32.3c-6.9.9-11.9 6.1-18.6 5-3.4-.6-3.5-2.5-4.5-4.5-.7-1.5-1.9-1.3-3.5-1.9-1.4-.6-2.3-1.7-5.2-1.1-2.5.6-2.8 4.5-6 4.3-1.7-.1-1.8-2.5-4.2-5.5-6.3-7.6-12.2-6.5-16.2.5l30.3 35.9z" fill="#491213"/><path d="M46.5 70.9l4.1-6.5 4 6.5-4 6.5-4.1-6.5z" fill="#23A9E1"/><path d="M23.3 32.3c.5.6.9 1.3.8 2.1-.1.6-.9 1.6-.3 1.8.7-.9 1.5-1.9 2.2-2.8-.6-.2-5.4-5.8-5.4-6.5-1.1.6-2.1 1.2-3.2 1.7.2.7 1.3 0 1.9 0 .8.1 1.4.6 2 1.2-1.7 1.4-5.9 5-6.4 5.1-.2 0-1.1-.6-1.1-.1 0 .3.9 1 1 1.2.7.9 1.5 1.8 2.2 2.7.6-.3-.1-.7.2-1.2.3-.4 4.9-4.3 6.1-5.2zm-5.3-7c.4-.1.6.4 1-.1-.8-1-1.6-1.9-2.4-2.9-.4-.4-.8-.9-.7 0 .1.6-6.1 5.7-6.5 5.8-.5.2-.8-.4-1.1.1.7.9 1.5 1.7 2.2 2.6.2.3.5.6.7.9.3.3.2-.7.2-.6-.1-.5.5-.9.9-1.2 1.5-1.3 5.3-4.6 5.7-4.6zm-8.8-.9c-1.8.5-3.7-.2-4.2-2s.6-3.8 2.1-4.8c1.4-1 3.6-1 4.4.8.3.8.2 1.7-.1 2.5-.2.5-.6 1 .1 1.3.9-1.1 1.7-2.2 2.6-3.3-1.1-.6-1.5-1.7-2.3-2.6-.9-1.1-2.1-2.1-3.5-2.3-2.9-.4-5.6 2.6-5.8 5.2-.1 1.5.4 2.8 1.2 4 .8 1 1.9 1.6 2.4 2.8.3.1 2.7-1 3.3-1.3-.1-.1-.1-.2-.2-.3-.7.2 0 0 0 0zm39.3 36.4c-1.2-.8-4-4.7-4.6-5.3-.1-.1-.2-.3-.3-.4 0 0-.3.2-.2.2-.2.1.1.6-.1.9-.8 1.2-5.8 5-6 5.2-.6.4-1.2-.2-1.5.3.7.9 2.8 3.5 3 3.6.5.1.1-.8.2-1 .1-.4 2.6-2.4 3.5-3.2.3-.3.7.4.9.7.3.5.5 1 .3 1.6-.1.4-.7.9-.3 1.2.6-.7 2.4-2.8 2.6-3 .3-.3-.6 0-.5-.1-.4.2-.7.2-1.1 0-.1-.1-1.1-1.1-1-1.2.4-.4 1-1 1.5-1.1.9-.2 1.6 1.5 1.7 2.1.1.6.1 1.2-.1 1.8-.1.4-.5.7 0 .9.7-1 1.4-1.9 2.1-2.9.2-.2 0-.3-.1-.3-.1-.1.2 0 0 0zm-10.2-4.2c2.2-1.9 2.5-5.1.8-7.3-1.9-2.5-5.4-3.1-7.8-1.1-2.2 1.9-2.5 5-.8 7.3 2 2.7 5.2 3 7.8 1.1 1.2-.9-.1.1 0 0zm-.5-4.7c-.6 1.5-2.2 3.1-3.7 3.7-1.8.7-3.1-.8-2.4-2.6.7-1.5 2.2-3.1 3.7-3.7 1.9-.7 3.1.9 2.4 2.6-.4.9.1-.2 0 0zM31.9 42c.5.1.9.5 1.3 0-.7-.9-1.5-1.8-2.2-2.6-.6.3 0 .5-.2 1-.2.4-2.6.8-3.2.9.2-.6.9-2.6 1.2-2.8.5-.4.9.4 1.3-.1l-2.7-3.3c-.3-.4-.6-1-1-.7 0 0 0 1.5-.1 1.7-.1.2-.9 3.6-1.9 4.5-.5.4-2.2 1.9-2.7 2.1-.5.2-.8-.6-1.2 0 .8 1 1.7 2 2.5 3 .1.1.6.9.8.9.5.1.1-.9.1-1.1.2-.4 2.5-2.7 3.5-2.9 1.2-.2 3-.7 4.5-.6.3.1-.4 0 0 0z" fill="#fff"/><path d="M25.6 22.9c-4-.2-2.4-4 .4-4.8 2.6-.8 8.1 1.7 9.8 3.4-2.8.9-6.4.7-9.4.9-.2-3.2-1-2.1-.8.5zm1 4.8c-2-1.6-1.4-5.3 1.8-4.1 4 2.1-.9 3.2-1.8 4.1zm8.5 7.7c-8.6-.1-2.8-13.3.1-12.5 3.4 1.1 3 12.6-.1 12.5zm6.1-4.3c-.8 2.5-2.4 3-2.2-.1.2-3.5 2.5-2.7 4.9-4 2-1.1 3.1-5.2 6.6-2.8 1.6 1.1 3.4.2 3.9 1.8 0-.1-4.5 10.3-2 10.3-5 0-2.8-5.9-.9-9.9-1.8.9-4.8 6.7-2.4 7.6-1.3 1.7-5.2 3.9-7.2 2.3-1.5-1.1-.7-3.2-.7-5.2zm4.1 9.6c-3.5 1-8.1-1.2-2.5-2.3 3.5-.7 7.2.7 2.5 2.3.1 0-.1 0 0 0zm4.4-.1c-.7-1.7.6-3.6 2.7-2.2 1.8 1.2-.9 3.1-2.7 2.2zm-3 4.6c-2.4-.7-10.5-.6-5.2-2.8 1.7-.6 10.2.2 5.2 2.8zm3.2-.3c0-1-.5-2.7 1.4-1.9 2.2.8-1.4 2.6-1.4 1.9 0 0 0-.2 0 0zm7.3 3.6c-1.4-1.2-2.9-1.3-4.2 0-1.8-3.3-8.3-2.2-11.4-2.7 1.6 4.1 14.8 4.9 15.6 2.7zM55.3 51c-3.2-.1-6.7-.6-9.6.1 1.9.5 6.4 1.8 2.2 2.9 1.5 2.2 4 2 5.6.1-.7-.3-1-.7-1.6-1.1 1.6-.3 3.2-1.2 3.4-2zm3.6-3.9c-5.3-3.1-4-5.4.4-7.6 2.3-1.1 7.3-5.2 9.4-3.9-3.3 3.9-6.6 7.7-9.8 11.5z" fill="#DC6243"/><path d="M55.1 39.8c-4.5-4.6 6.7-4.2 8.5-5.8 1.3.4 10.8-8.3 13.1-7.7-1.7 1.9-5.2 8.1-7.8 8.1-2 0-4-.3-5.5 1.1-2.2 2.1-5.9 3.1-8.3 4.3z" fill="#F49774"/><path d="M56.6 34.2c-2.5 1.3-4.8-3.9-.5-3.4 2.8.3 5.7-.2 8.3.2-2 2.3-4.7 3.6-7.8 3.2z" fill="#F4B1A4"/><path d="M69.2 52.5c.2.6.3 1.3.2 2-.1.9-1 2.9-2.2 2.3-1.2-.6-2.2-1.7-3.2-2.6.8-.9 1.5-1.7 2.9-1.3.4.1.7 0 .3-.3-.4-.2-3.1-2-3.3-1.8-.3.3.5.9.2 1.5-.2.4-.6.8-.9 1.2-.7-.6-1.9-1.3-1.1-2.3.5-.7 1.3-1.2 2.1-1.3.6-.1 1.8.4 2-.2-1.1-.5-2.2-1-3.3-1.6.2.8-3.3 4.5-4.1 5.5-.1.1-.7.6-.7.8 0 .4.6.1.7.1.5-.2 6.8 5.1 7 5.5.1.3-.2.6 0 .7 0 0 .2.2.3.2.4-.5 4.5-6 5.4-6.2-.8-1.2-1.6-2.4-2.4-3.7-.6.3 0 1 .1 1.5zM63 59.2c-2.1-1.3-5.6 1.3-6.1 1.5-1 .5-1.8-.5-1.3-1.5.5-.8 1.4-1.2 2.3-1.3.3 0 1.3.2 1.5 0 .1-.2.2-.2 0-.3-.9-.6-1.7-1.2-2.6-1.7-.2 1.1-1.4 1.7-2.1 2.4-.8.9-1.5 1.9-1.5 3.2 0 1.1.7 2.1 1.7 2.7 1.1.6 2.3.1 3.3-.5.6-.4 1.3-.9 1.9-1.2 1-.5 2.3-.1 2 1.3-.3 1.1-1.4 2.1-2.4 2.3-.6.2-1.3.1-1.9-.1-.4-.1-1-.7-1.2-.1 1.2.8 2.3 1.7 3.5 2.5.1-.8.5-1.1 1.1-1.6.7-.6 1.4-1.3 2-2.1 1.2-1.7 1.6-4.1-.2-5.5zm0 0c1 .6-.6-.5 0 0zm36.7-39.6c-.7.7-8.4-2.3-9-2.8-.3-.1-.3-1.3-.7-.8l-1.2 1.5c-.4.5-.8 1-1.3 1.5-.3.3-.5.5 0 .7.8-.4 5.4 7.3 5 8.5-.7.4-6.9-5.1-7.1-5.4-.1-.1.3-1-.2-.9-.2 0-.7.9-.9 1.1-.3.4-.6.7-.9 1.1.3.5.5 0 1 0 .4.1 1.8 1.3 2.2 1.7-.7 0-2.7.1-2.9.1-.9.1-.4-.7-1-.9-.8.9-1.5 1.8-2.3 2.8-.4.5-.9 1.1-1.3 1.6-.1.1 0 0 0 .1.3.3.1.2.6 0s6.6 4.9 6.8 5.2c.4.4-.2 1 .4 1.2.6-.7 1.2-1.5 1.8-2.2.1-.1.1-.1 0-.2-.4-.4-.5.2-1 .2-.5-.1-4.4-3.4-5.9-4.6 1.8-.1 7.3-.3 8.2-.3.3 0 1.1.9 1.1 1.2-.1.4-.5.6.1.8.5-.6 1-1.1 1.5-1.7l.2-.3c.1-.1.1-.1.2-.3l.2-.2c.4-.5 1.8-2 1.6-2.1-.5-.4-.7.5-1.3-.1-.3-.2-1.2-1.8-1.4-2.2-.3-.4.6-.9 1-1.1.8-.5 3.2-1.2 3.5.3 0 .3-.3.5-.1.7 0 0 .2.2.3.2.2-.2 2.4-2.8 3.3-4-.3-.2-.4-.3-.5-.4zm-7.4 2.2c.1 0 .2-.1 0 0-.3.2-.7.5-1 .8-.5-.9-1-1.8-1.6-2.7 1.2.5 2.4 1 3.5 1.5-.2.1-.5.2-.9.4zM82.6 33c-2.4-2-5.6-1.4-7.6.8-1.9 2.3-1.7 5.7.6 7.6 2.3 1.9 5.7 1.4 7.6-.8 1.9-2.3 1.8-5.7-.6-7.6zm-.3 6.6s0 .1 0 0c-1.3 1.3-3.4.1-4.5-.7-1.1-.8-3.1-2.6-1.9-4.1 1.1-1.3 3.1-.2 4.2.5 1.2.8 3.4 2.6 2.3 4.2l-.1.1z" fill="#fff"/><path d="M82.6 33c1.2 1-.3-.2 0 0zm-.3 6.7c0-.1 0-.1 0 0l.1-.1c-.1 0-.1.1-.1.1zM76 42.1c.1.1.3.3 0 0-2.9-2.2-6.3-1.6-8.5 1.1l-3 3.6c.4.5.8-.1 1.3.2.4.3 6.2 5.1 6.3 5.4.2.5-.3.5.1.9.2.1 4.5-5.2 4.9-6.2.9-1.8.3-3.7-1.1-5zm-1.3 6.8c-.2.3 0 .1-.7.7-.3.3-6.4-4.7-6.2-4.9.8-.9 2.6-1.6 3.6-1.3 2.2.5 5.2 3.2 3.3 5.5z" fill="#fff"/></svg>
